X:15   
T:Jig Run Rig
C:Fergie McDonald
I:Scots Jig
Q:1/4=160
M:6/8   
L:1/8     
K:D
f/e/ |d2 d BAA |FAA BAA |Bdd AAA |
fee efe |d2 d BAA |FAA BAA |Bdd Aff |
edd d2:|a/g/ |faa eaa |daa caa |
Bdd AAA |1fee eag |faa eaa |daa caa |
Bdd Aff |edd d2 z :|2fee efe |d2 d BAA |
FAA BAA |Bdd Aff |edd d2  |]
